!!!COM: Music21
!!!OTL: Alalá
!!!OMV: pezas_alalas_alala-19_alala-partitura.musicxml
**kern
*I"Bagpipes
*I'Bag
*clefG^2
*k[]
*M2/4
=1
!LO:TX:a:t=Largo
*MM48
!LO:TX:a:t=[quarter]=48
4r
8r
8gg
=||
12ggL
12ccc
12ggJ
8cccL
8eeeJ
=
8gggL
[8fffJ
8fff;L]
8eeeJ
=
12fffL
12eee
12dddJ
8cccL
8eee;J
=
8fffL
[8dddJ
8ddd;L]
8ggJ
=||
12ggL
12ccc
12ggJ
8cccL
8eeeJ
=
8gggL
[8fffJ
8fff;L]
8eeeJ
!!linebreak:original
=
12fffL
12eee
12dddJ
8cccL
8eee;J
=
8fffL
8dddJ
8ddd;
8r
!!linebreak:original
=||
*M3/4
8bbL
8cccJ
8dddL
8eeeJ
8cccL
8dddJ
=
8ccc;L
16bbL
16aaJJ
4gg;
8ggL
8aaJ
=||
*M2/4
8bbL
8cccJ
8aaL
8bbJ
=
4aa;
4gg;
=
2gg
=||
*M3/4
8bbL
8cccJ
8dddL
8eeeJ
8cccL
8dddJ
=
*-
